static/tornado.svg

<?xml version="1.0" encoding="UTF-8"?>
<!-- (c) ammap.com | SVG weather icons -->
<!-- Tornado | Contributed by hsoJ95 on GitHub: https://github.com/hsoj95 -->
<svg version="1.1" xmlns="http://www.w3.org/2000/svg" xmlns:xlink="http://www.w3.org/1999/xlink" width="64" height="64" viewbox="0 0 64 64">
    <defs>
        <filter id="blur" width="200%" height="200%">
            <feGaussianBlur in="SourceAlpha" stdDeviation="3" />
            <feOffset dx="0" dy="4" result="offsetblur" />
            <feComponentTransfer>
                <feFuncA type="linear" slope="0.05" />
            </feComponentTransfer>
            <feMerge>
                <feMergeNode/>
                <feMergeNode in="SourceGraphic" />
            </feMerge>
        </filter>
    </defs>
    <g filter="url(#blur)" id="thunder">
        <g transform="translate(20,5)">
            <g id="tornado" transform="translate(-5, 30)" stroke="white" fill="#1D1D1D">
                <path d="M9.23901158,-9.49386371e-16 L11.3987309,-1.21779583e-14 L11.3987309,-1.24344979e-14 C12.801779,-2.01691758e-14 14.1681534,0.448121973 15.298688,1.27904649 L15.3736083,1.33411168 L15.3736083,1.33411168 C16.2215292,1.95731981 16.403695,3.14990558 15.7804869,3.99782654 C15.7177587,4.08317284 15.6480233,4.16314 15.5720054,4.23689693 L12.745452,6.97937995 L12.745452,6.97937995 C11.6541171,8.03825523 10.885777,9.38516771 10.5297692,10.8635071 L10.5297692,10.8635071 L10.5297692,10.8635071 C10.1747403,12.3377821 9.38247153,13.6703547 8.25685398,14.6864835 L5.13650434,17.5033166 L3.17681819,18.8770141 L3.17681819,18.8770141 C2.32003764,19.4775987 1.13860975,19.2699109 0.538025154,18.4131303 C-0.00307248108,17.6412126 0.105676138,16.5889015 0.793196559,15.9439523 L0.793196559,15.9439523 L1.87126735,14.947348 L1.87126735,14.947348 C3.12686588,13.7866312 3.84080575,12.154378 3.84080575,10.4444683 L3.84080575,10.4444683 L3.84080575,10.4444683 C3.84080575,8.67208707 3.50831427,6.91543543 2.86058207,5.2656542 L1.35008427,1.41839928 L1.35008427,1.41839928 C1.1404215,0.884385832 1.40335967,0.281517137 1.93737312,0.0718543636 C2.05830876,0.0243729712 2.18707844,-2.12924157e-14 2.31700115,-2.13162821e-14 L3.84080575,-2.08721929e-14 L9.23901158,-9.49386371e-16 Z"
                    id="Polygon"></path>
            </g>
            <g class="am-weather-cloud-1">
                <path d="M47.7,35.4     c0-4.6-3.7-8.2-8.2-8.2c-1,0-1.9,0.2-2.8,0.5c-0.3-3.4-3.1-6.2-6.6-6.2c-3.7,0-6.7,3-6.7,6.7c0,0.8,0.2,1.6,0.4,2.3     c-0.3-0.1-0.7-0.1-1-0.1c-3.7,0-6.7,3-6.7,6.7c0,3.6,2.9,6.6,6.5,6.7l17.2,0C44.2,43.3,47.7,39.8,47.7,35.4z"
                    fill="#666" stroke="white" stroke-linejoin="round" stroke-width="1.2" transform="translate(-10,-6), scale(0.6)"
                />
            </g>
            <g>
                <path d="M47.7,35.4     c0-4.6-3.7-8.2-8.2-8.2c-1,0-1.9,0.2-2.8,0.5c-0.3-3.4-3.1-6.2-6.6-6.2c-3.7,0-6.7,3-6.7,6.7c0,0.8,0.2,1.6,0.4,2.3     c-0.3-0.1-0.7-0.1-1-0.1c-3.7,0-6.7,3-6.7,6.7c0,3.6,2.9,6.6,6.5,6.7l17.2,0C44.2,43.3,47.7,39.8,47.7,35.4z"
                    fill="#333" stroke="white" stroke-linejoin="round" stroke-width="1.2" transform="translate(-20,-11)" />
            </g>
            <g transform="translate(1,28), scale(1)">
                <polygon class="am-weather-stroke" fill="orange" stroke="white" stroke-width="1" points="14.3,-2.9 20.5,-2.9 16.4,4.3 20.3,4.3 11.5,14.6 14.9,6.9 11.1,6.9"
                />
            </g>
            <g id="error" transform="translate(23, 25)">
                <path d="M7.77911118,2.90598694 L1.78786622,13.0231308 L1.78786622,13.0231308 C1.2250391,13.9735514 1.53924574,15.2002811 2.48966639,15.7631082 C2.79820001,15.9458179 3.15018031,16.0422194 3.50875504,16.0422194 L15.491245,16.0422194 L15.491245,16.0422194 C16.5958145,16.0422194 17.491245,15.1467889 17.491245,14.0422194 C17.491245,13.6836447 17.3948435,13.3316644 17.2121338,13.0231308 L11.2208888,2.90598694 L11.2208888,2.90598694 C10.6580617,1.95556629 9.431332,1.64135966 8.48091135,2.20418678 C8.19172737,2.37543789 7.95036229,2.61680296 7.77911118,2.90598694 Z"
                    id="Shape" fill="#CC0000" fill-rule="nonzero"></path>
                <path d="M9.5,10.5 L9.5,5.5" id="Line" stroke="#FFFFFF" stroke-width="1.5" stroke-linecap="round"></path>
                <circle id="Oval" fill="#FFFFFF" cx="9.5" cy="13" r="1"></circle>
            </g>
        </g>
    </g>
</svg>

<?xml version="1.0" encoding="UTF-8"?>
<!-- (c) ammap.com | SVG weather icons -->
<!-- Tornado | Contributed by hsoJ95 on GitHub: https://github.com/hsoj95 -->
<svg width="56" height="56" version="1.1" xmlns="http://www.w3.org/2000/svg">
 <defs>
  <filter id="blur" x="-.16995" y="-.17864" width="1.3289" height="1.455">
   <feGaussianBlur in="SourceAlpha" stdDeviation="3"/>
   <feOffset dx="0" dy="4" result="offsetblur"/>
   <feComponentTransfer>
    <feFuncA slope="0.05" type="linear"/>
   </feComponentTransfer>
   <feMerge>
    <feMergeNode/>
    <feMergeNode in="SourceGraphic"/>
   </feMerge>
  </filter>
 </defs>
 <g id="thunder" filter="url(#blur)">
  <g transform="translate(20,5)">
   <g id="tornado" transform="translate(-5 30)" fill="#1D1D1D" stroke="#fff">
    <path id="Polygon" d="m9.239-9.4939e-16 2.1597-1.1229e-14v-2.5654e-16c1.403-7.7347e-15 2.7694 0.44812 3.9 1.279l0.07492 0.055065c0.84792 0.62321 1.0301 1.8158 0.40688 2.6637-0.062728 0.085346-0.13246 0.16531-0.20848 0.23907l-2.8266 2.7425c-1.0913 1.0589-1.8597 2.4058-2.2157 3.8841-0.35503 1.4743-1.1473 2.8068-2.2729 3.823l-3.1203 2.8168-1.9597 1.3737c-0.85678 0.60058-2.0382 0.3929-2.6388-0.46388-0.5411-0.77192-0.43235-1.8242 0.25517-2.4692l1.0781-0.9966c1.2556-1.1607 1.9695-2.793 1.9695-4.5029 0-1.7724-0.33249-3.529-0.98022-5.1788l-1.5105-3.8473c-0.20966-0.53401 0.053275-1.1369 0.58729-1.3465 0.12094-0.047481 0.24971-0.071854 0.37963-0.071854l6.922 2.0367e-14z"/>
   </g>
   <g class="am-weather-cloud-1">
    <path transform="translate(-10 -6) scale(.6)" d="m47.7 35.4c0-4.6-3.7-8.2-8.2-8.2-1 0-1.9 0.2-2.8 0.5-0.3-3.4-3.1-6.2-6.6-6.2-3.7 0-6.7 3-6.7 6.7 0 0.8 0.2 1.6 0.4 2.3-0.3-0.1-0.7-0.1-1-0.1-3.7 0-6.7 3-6.7 6.7 0 3.6 2.9 6.6 6.5 6.7h17.2c4.4-0.5 7.9-4 7.9-8.4z" fill="#666" stroke="#fff" stroke-linejoin="round" stroke-width="1.2"/>
   </g>
   <path transform="translate(-20,-11)" d="m47.7 35.4c0-4.6-3.7-8.2-8.2-8.2-1 0-1.9 0.2-2.8 0.5-0.3-3.4-3.1-6.2-6.6-6.2-3.7 0-6.7 3-6.7 6.7 0 0.8 0.2 1.6 0.4 2.3-0.3-0.1-0.7-0.1-1-0.1-3.7 0-6.7 3-6.7 6.7 0 3.6 2.9 6.6 6.5 6.7h17.2c4.4-0.5 7.9-4 7.9-8.4z" fill="#333" stroke="#fff" stroke-linejoin="round" stroke-width="1.2"/>
   <g transform="translate(1 28) scale(1)">
    <polygon class="am-weather-stroke" points="14.3 -2.9 20.5 -2.9 16.4 4.3 20.3 4.3 11.5 14.6 14.9 6.9 11.1 6.9" fill="orange" stroke="#fff"/>
   </g>
   <g id="error" transform="translate(23 25)">
    <path id="Shape" d="m7.7791 2.906-5.9912 10.117c-0.56283 0.95042-0.24862 2.1772 0.7018 2.74 0.30853 0.18271 0.66051 0.27911 1.0191 0.27911h11.982c1.1046 0 2-0.89543 2-2 0-0.35857-0.096402-0.71056-0.27911-1.0191l-5.9912-10.117c-0.56283-0.95042-1.7896-1.2646-2.74-0.7018-0.28918 0.17125-0.53055 0.41262-0.7018 0.7018z" fill="#c00"/>
    <path id="Line" d="m9.5 10.5v-5" stroke="#fff" stroke-linecap="round" stroke-width="1.5"/>
    <circle id="Oval" cx="9.5" cy="13" r="1" fill="#fff"/>
   </g>
  </g>
 </g>
</svg>
